X: 1265
T:The Lark on the Strand
M:6/8
L:1/8
S:Tara Bingham, Belfast (flute)
R:Jig
D:Session Tape - Newtownards Rugby Club, 1980
N:As played
Z:Bernie Stocks
K:G
~A3 AGA | BGE Gz2 | ~A3 ~G3 | egd edB | ~A3 AGA | BGE G2z | ABA ~G3|\
dGG (3.B.c.dB | A2z {B}AGA | BGE G2z | ~A3 ~G3 | egd edB | ABG ~A3 | BGE G2z |\
ABA ~G3 | dGG (3.B.c.dB || {A}G(3Bcd ~g3 | aba gz2 | G(3Bcd ~g3 | egd edB |\
GBd gz2 | aba ~g3 | aza {b}age | egd edB | GBd ~g3 | gba {a}g2z |\
GBA ~g3 | egd edB | G(3Bcd ~g3 | gba gz2 | ~a3 {b}age | egd edB ||
